X:1
T:Title
%%score { 1 | ( 2 3 ) }
L:1/8
M:6/8
K:A
V:1 treble nm="Grand Piano"
V:2 bass 
V:3 bass 
V:1
 z3 z2[Q:1/4=81] [CE]/[CE]/ | [CE][DF][EG] [FA]2 [EG] | [DF]3 [CE]2 [CE]/E/ | cAA AGA | %4
[M:5/8] [GB]-[GB]- [GB]3 |[M:1/8] [GB] |[M:3/4] [Gd][Gd] [Gd][Gd] [Gc][GB] | %7
 [Ac]3 [EA]2 [Ec]/[Ec]/ | [^DB][DB] [DA][DF] [DG][DA] | [EB]6 | [Ec]3 [CEA]2 [CE] | [DF]3 .[CE]3 | %12
 c>A AA GA | [GB]4- [GB]c/c/ | e2 e c2 A/A/ | c2 c A2 E/E/ | F [FA]2 [Ec]2 [DB] | %17
[M:5/8] [CA]-[CA]- [CA]3 |] %18
V:2
 z3 z2 [A,,A,]/[A,,A,]/ | [A,,A,][A,,A,][A,,A,] [A,,A,]2 [A,,A,] | %2
 [A,,A,]3 [A,,A,]2 z/[K:treble] C/ | [A,E][A,CE][A,CE] [F,CF][K:bass][F,=CF][F,^CF] | %4
[M:5/8] [E,E]-[E,E]- [E,E]3 |[M:1/8] [E,E] |[M:3/4] [E,B,][E,B,] [E,B,][E,B,] [E,C][E,E] | %7
 [A,E]3 [A,C]2 [A,,A,] | [B,,A,]2 [B,,F,][B,,B,] [B,,B,][B,,B,] | [E,G,]6 | [A,,A,]3 A,,2 [A,,A,] | %11
 [A,,A,]3 .[A,,A,]3 | [A,E]>[A,CE] [A,CE]C =C[K:bass][F,^CF] | %13
 [E,E]4- [E,E][K:treble][A,EA]/[A,EA]/ | [A,CA]2 [A,CA] [A,E]2 [A,CE]/[A,CE]/ | %15
 [A,EA]2 [A,EA][K:bass] [A,CE]2 [C,A,]/[C,A,]/ | [D,A,D] [D,A,]2 [E,A,]2 [E,G,] | %17
[M:5/8] [A,,A,]-[A,,A,]- [A,,A,]3 |] %18
V:3
 x6 | x6 | z3 z2 [A,,A,][K:treble] | x4[K:bass] x2 |[M:5/8] x5 |[M:1/8] x |[M:3/4] x6 | x6 | x6 | %9
 x6 | x6 | x6 | z2 z .[F,F]3[K:bass] | x5[K:treble] x | x6 | x3[K:bass] x3 | x6 |[M:5/8] x5 |] %18

